X:97
T:March.2voices. JJo.097
S:J.Jones MS,1801,N.Shrops.
A:N Shropshire
Z:Neil Brookes 2006
M:4/4
L:1/8
Q:1/4=110
K:F
[V:1]f>f|c’3ba2g2|f2f>ff2c2|f3ag2b2|abc’ag3a|!
[V:2]A>A|a3gf2c>B|A2A>AA2F2|A2f>fe2g>g|fgafe3f|!
[V:1]b2g>ba2f2|g>fga fgab|c’>baba2Tg2|f2f>ff2::!
[V:2]g2e>gf2A2|c2c>c Acfg|a>gf>gf2c2|A2A>AA2::!
[V:1]c>c|g3a g>afg|a2a>aa2f>g|a2g>f c’2b>a|g2g>gg2 a>b|!
[V:2]E>E|e3f e>fA>c|f2f>ff2A>c|f2c>A a2g>f|e2e>ee2f>g|!
[V:1]c’2a>c’ b2g>b|a>fc’>a g2a>b|c’bab a2g2|f2f>ff2|]
[V:2]a2f>ag2e>g|f2a>f c2f>g|a>gf>g f2c2|A2A>AA2|]

